data/os/fedora.svg

<?xml version="1.0" encoding="UTF-8" standalone="no"?>
<!-- Created with Inkscape (http://www.inkscape.org/) by Marsupilami -->

<svg
   xmlns:dc="http://purl.org/dc/elements/1.1/"
   xmlns:cc="http://creativecommons.org/ns#"
   xmlns:rdf="http://www.w3.org/1999/02/22-rdf-syntax-ns#"
   xmlns:svg="http://www.w3.org/2000/svg"
   xmlns="http://www.w3.org/2000/svg"
   xmlns:sodipodi="http://sodipodi.sourceforge.net/DTD/sodipodi-0.dtd"
   xmlns:inkscape="http://www.inkscape.org/namespaces/inkscape"
   version="1.0"
   width="64"
   height="64"
   viewBox="-1.7718431 -1.7718431 81.62462 25.822431"
   id="svg2870"
   sodipodi:version="0.32"
   inkscape:version="0.92.5 (2060ec1f9f, 2020-04-08)"
   sodipodi:docname="fedora.svg"
   inkscape:output_extension="org.inkscape.output.svg.inkscape">
  <metadata
     id="metadata2458">
    <rdf:RDF>
      <cc:Work
         rdf:about="">
        <dc:format>image/svg+xml</dc:format>
        <dc:type
           rdf:resource="http://purl.org/dc/dcmitype/StillImage" />
        <dc:title></dc:title>
      </cc:Work>
    </rdf:RDF>
  </metadata>
  <sodipodi:namedview
     inkscape:window-height="991"
     inkscape:window-width="1915"
     inkscape:pageshadow="2"
     inkscape:pageopacity="0.0"
     guidetolerance="10.0"
     gridtolerance="10.0"
     objecttolerance="10.0"
     borderopacity="1.0"
     bordercolor="#666666"
     pagecolor="#ffffff"
     id="base"
     showgrid="false"
     inkscape:zoom="4"
     inkscape:cx="-15.161679"
     inkscape:cy="71.25074"
     inkscape:window-x="0"
     inkscape:window-y="30"
     inkscape:current-layer="svg2870"
     inkscape:window-maximized="0" />
  <defs
     id="defs2872">
    <inkscape:perspective
       sodipodi:type="inkscape:persp3d"
       inkscape:vp_x="0 : 162 : 1"
       inkscape:vp_y="0 : 1000 : 0"
       inkscape:vp_z="1024 : 162 : 1"
       inkscape:persp3d-origin="512 : 108 : 1"
       id="perspective2460" />
    <inkscape:perspective
       id="perspective2624"
       inkscape:persp3d-origin="372.04724 : 350.78739 : 1"
       inkscape:vp_z="744.09448 : 526.1811 : 1"
       inkscape:vp_y="0 : 1000 : 0"
       inkscape:vp_x="0 : 526.1811 : 1"
       sodipodi:type="inkscape:persp3d" />
    <inkscape:perspective
       id="perspective2752"
       inkscape:persp3d-origin="372.04724 : 350.78739 : 1"
       inkscape:vp_z="744.09448 : 526.1811 : 1"
       inkscape:vp_y="0 : 1000 : 0"
       inkscape:vp_x="0 : 526.1811 : 1"
       sodipodi:type="inkscape:persp3d" />
  </defs>
  <g
     id="g2758"
     transform="matrix(0.58054281,0,0,0.58054281,-40.964313,-100.0711)">
    <g
       transform="matrix(4.1474231,0,0,4.1474231,-599.81857,123.97573)"
       id="g2516">
      <path
         id="path3584"
         style="fill:#072b61;fill-opacity:1;fill-rule:nonzero;stroke:none"
         d="M 194.35736,16.449738 C 194.35736,7.3649625 186.99245,0 177.90779,0 168.8271,0 161.46538,7.3587875 161.45876,16.43815 l -5e-4,-5.37e-4 V 29.1671 l 5e-4,5.37e-4 c 0.005,2.0615 1.67683,3.730388 3.73967,3.730388 l 0.0179,-5.25e-4 0.001,5.25e-4 h 12.69701 c 9.08175,-0.0034 16.44297,-7.365788 16.44297,-16.448287"
         inkscape:connector-curvature="0" />
      <path
         style="fill:#0a57a4;fill-opacity:1;fill-rule:nonzero;stroke:none"
         d="m 954.78125,29.40625 c -22.06311,0 -39.9375,17.874729 -39.9375,39.9375 v 21.1875 h -21.1875 c -22.06304,-4e-6 -39.9375,17.72003 -39.9375,39.78125 -8e-5,22.06239 17.87448,39.9375 39.9375,39.9375 22.0618,1e-5 39.9375,-17.87511 39.9375,-39.9375 V 109.125 h 21.1875 c 22.06158,0 39.9375,-17.71887 39.9375,-39.78125 -4e-5,-22.062767 -17.87588,-39.9375 -39.9375,-39.9375 z m 0,18.75 c 11.64581,4e-6 21.1875,9.540275 21.1875,21.1875 10e-6,11.644059 -9.54164,21.1875 -21.1875,21.1875 H 954.625 936.65625 c -1.64676,-4e-6 -3.0625,-1.418691 -3.0625,-3.0625 v -18.125 c 0.0204,-11.632219 9.55686,-21.1875 21.1875,-21.1875 z m -61.125,60.96875 H 911.75 c 1.64403,0 3.09375,1.26167 3.09375,2.90625 v 18.28125 c -0.0178,11.62834 -9.55546,21.1875 -21.1875,21.1875 -11.64432,1e-5 -21.1875,-9.54344 -21.1875,-21.1875 -10e-6,-11.64607 9.5432,-21.1875 21.1875,-21.1875 z"
         transform="matrix(0.1932627,0,0,0.1932627,-1.7718431,-1.7778459)"
         id="path2497"
         inkscape:connector-curvature="0" />
      <path
         id="path3588"
         style="fill:#ffffff;fill-opacity:1;fill-rule:nonzero;stroke:none"
         d="m 175.01713,15.7113 v -4.086387 -0.0053 c 0,-4.2639125 3.45636,-7.7203375 7.72033,-7.7203375 0.64712,0 1.10663,0.072625 1.7058,0.2295625 0.87288,0.2287375 1.58589,0.9440625 1.58643,1.7769625 2.4e-4,1.00655 -0.73035,1.7381375 -1.82225,1.7381375 -0.5204,0 -0.70824,-0.099563 -1.47026,-0.099563 -2.24777,0 -4.07055,1.82045 -4.07449,4.068525 v 3.522562 5.39e-4 c 0,0.317686 0.25716,0.575336 0.57542,0.575336 h 0.002 2.67567 c 0.99728,0 1.8022,0.797875 1.80304,1.797475 0,1.00045 -0.80603,1.7968 -1.80304,1.7968 h -3.25271 v 4.10385 0.0054 c 0,4.2633 -3.45661,7.720224 -7.72034,7.720224 -0.64685,0 -1.10662,-0.07299 -1.70525,-0.2295 -0.8732,-0.228425 -1.58672,-0.944325 -1.58697,-1.776925 0,-1.006499 0.73065,-1.738475 1.82251,-1.738475 0.51985,0 0.70849,0.09988 1.46971,0.09988 2.24804,0 4.07135,-1.82095 4.07505,-4.0688 v -3.5408 c 0,-0.3173 -0.25771,-0.574338 -0.57545,-0.574338 h -0.002 l -2.6757,-5.37e-4 c -0.99726,0 -1.80297,-0.795587 -1.80297,-1.795725 -5.6e-4,-1.006325 0.81415,-1.79855 1.82221,-1.79855 h 3.23323"
         inkscape:connector-curvature="0" />
    </g>
  </g>
</svg>
<!-- version: 20080810, original size: 194.35736 59.061436, border: 3% -->

<?xml version="1.0" encoding="UTF-8" standalone="no"?>
<!-- Created with Inkscape (http://www.inkscape.org/) by Marsupilami -->
<svg xmlns:dc="http://purl.org/dc/elements/1.1/" xmlns:cc="http://creativecommons.org/ns#" xmlns:rdf="http://www.w3.org/1999/02/22-rdf-syntax-ns#" xmlns:svg="http://www.w3.org/2000/svg" xmlns="http://www.w3.org/2000/svg" xmlns:sodipodi="http://sodipodi.sourceforge.net/DTD/sodipodi-0.dtd" xmlns:inkscape="http://www.inkscape.org/namespaces/inkscape" version="1.0" width="155.16969" height="155.16463" viewBox="-1.7718431 -1.7718431 197.90105 62.605122" id="svg2870" sodipodi:version="0.32" inkscape:version="0.46" sodipodi:docname="Fedora3.svg" inkscape:output_extension="org.inkscape.output.svg.inkscape">
  <metadata id="metadata2458">
    <rdf:RDF>
      <cc:Work rdf:about="">
        <dc:format>image/svg+xml</dc:format>
        <dc:type rdf:resource="http://purl.org/dc/dcmitype/StillImage"/>
      </cc:Work>
    </rdf:RDF>
  </metadata>
  <sodipodi:namedview inkscape:window-height="991" inkscape:window-width="1400" inkscape:pageshadow="2" inkscape:pageopacity="0.0" guidetolerance="10.0" gridtolerance="10.0" objecttolerance="10.0" borderopacity="1.0" bordercolor="#666666" pagecolor="#ffffff" id="base" showgrid="false" inkscape:zoom="3.0162524" inkscape:cx="97.161934" inkscape:cy="111.25074" inkscape:window-x="-3" inkscape:window-y="-4" inkscape:current-layer="svg2870"/>
  <defs id="defs2872">
    <inkscape:perspective sodipodi:type="inkscape:persp3d" inkscape:vp_x="0 : 162 : 1" inkscape:vp_y="0 : 1000 : 0" inkscape:vp_z="1024 : 162 : 1" inkscape:persp3d-origin="512 : 108 : 1" id="perspective2460"/>
    <inkscape:perspective id="perspective2624" inkscape:persp3d-origin="372.04724 : 350.78739 : 1" inkscape:vp_z="744.09448 : 526.18109 : 1" inkscape:vp_y="0 : 1000 : 0" inkscape:vp_x="0 : 526.18109 : 1" sodipodi:type="inkscape:persp3d"/>
    <inkscape:perspective id="perspective2752" inkscape:persp3d-origin="372.04724 : 350.78739 : 1" inkscape:vp_z="744.09448 : 526.18109 : 1" inkscape:vp_y="0 : 1000 : 0" inkscape:vp_x="0 : 526.18109 : 1" sodipodi:type="inkscape:persp3d"/>
  </defs>
  <g id="g2758" transform="matrix(1.4207782,0,0,1.4207782,-98.680262,-243.87652)">
    <g transform="matrix(4.1474231,0,0,4.1474231,-599.81857,123.97573)" id="g2516">
      <path id="path3584" style="fill:#072b61;fill-opacity:1;fill-rule:nonzero;stroke:none" d="M 194.35736,16.449738 C 194.35736,7.3649625 186.99245,-1.7763568e-15 177.90779,-1.7763568e-15 C 168.8271,-1.7763568e-15 161.46538,7.3587875 161.45876,16.43815 L 161.45826,16.437613 L 161.45826,29.1671 L 161.45876,29.167637 C 161.46378,31.229137 163.13559,32.898025 165.19843,32.898025 L 165.21634,32.8975 L 165.21738,32.898025 L 177.91439,32.898025 C 186.99614,32.8946 194.35736,25.532237 194.35736,16.449738"/>
      <path style="fill:#0a57a4;fill-opacity:1;fill-rule:nonzero;stroke:none" d="M 954.78125,29.40625 C 932.71814,29.40625 914.84375,47.280979 914.84375,69.34375 L 914.84375,90.53125 L 893.65625,90.53125 C 871.59321,90.531246 853.71875,108.25128 853.71875,130.3125 C 853.71867,152.37489 871.59323,170.25 893.65625,170.25 C 915.71805,170.25001 933.59375,152.37489 933.59375,130.3125 L 933.59375,109.125 L 954.78125,109.125 C 976.84283,109.125 994.71875,91.40613 994.71875,69.34375 C 994.71871,47.280983 976.84287,29.40625 954.78125,29.40625 z M 954.78125,48.15625 C 966.42706,48.156254 975.96875,57.696525 975.96875,69.34375 C 975.96876,80.987809 966.42711,90.53125 954.78125,90.53125 L 954.625,90.53125 L 936.65625,90.53125 C 935.00949,90.531246 933.59375,89.112559 933.59375,87.46875 L 933.59375,69.34375 C 933.61411,57.711531 943.15061,48.15625 954.78125,48.15625 z M 893.65625,109.125 L 911.75,109.125 C 913.39403,109.125 914.84375,110.38667 914.84375,112.03125 L 914.84375,130.3125 C 914.82592,141.94084 905.28829,151.5 893.65625,151.5 C 882.01193,151.50001 872.46875,141.95656 872.46875,130.3125 C 872.46874,118.66643 882.01195,109.125 893.65625,109.125 z" transform="matrix(0.1932627,0,0,0.1932627,-1.7718431,-1.7778459)" id="path2497"/>
      <path id="path3588" style="fill:#ffffff;fill-opacity:1;fill-rule:nonzero;stroke:none" d="M 175.01713,15.7113 L 175.01713,11.624913 L 175.01713,11.619575 C 175.01713,7.3556625 178.47349,3.8992375 182.73746,3.8992375 C 183.38458,3.8992375 183.84409,3.9718625 184.44326,4.1288 C 185.31614,4.3575375 186.02915,5.0728625 186.02969,5.9057625 C 186.02993,6.9123125 185.29934,7.6439 184.20744,7.6439 C 183.68704,7.6439 183.4992,7.5443375 182.73718,7.5443375 C 180.48941,7.5443375 178.66663,9.3647875 178.66269,11.612863 L 178.66269,15.135425 L 178.66269,15.135963 C 178.66269,15.45365 178.91985,15.7113 179.23811,15.7113 L 179.23973,15.7113 L 181.9154,15.7113 C 182.91268,15.7113 183.7176,16.509175 183.71844,17.508775 C 183.71844,18.509225 182.91241,19.305575 181.9154,19.305575 L 178.66269,19.305575 L 178.66269,23.409425 L 178.66269,23.41485 C 178.66269,27.67815 175.20608,31.135075 170.94235,31.135075 C 170.2955,31.135075 169.83573,31.062087 169.2371,30.905575 C 168.3639,30.67715 167.65038,29.96125 167.65013,29.12865 C 167.65013,28.12215 168.38078,27.390175 169.47264,27.390175 C 169.99249,27.390175 170.18113,27.49005 170.94235,27.49005 C 173.19039,27.49005 175.0137,25.6691 175.0174,23.42125 L 175.0174,19.88045 C 175.0174,19.56315 174.75969,19.306112 174.44195,19.306112 L 174.44036,19.306112 L 171.76466,19.305575 C 170.7674,19.305575 169.96169,18.509988 169.96169,17.50985 C 169.96113,16.503525 170.77584,15.7113 171.7839,15.7113 L 175.01713,15.7113"/>
    </g>
  </g>
</svg>
<!-- version: 20080810, original size: 194.35736 59.061436, border: 3% -->
